src/assets/filled/Decred.svg

<svg width="24" height="24" viewBox="0 0 24 24"  xmlns="http://www.w3.org/2000/svg">
<path d="M5.64999 7.64999L2.85001 4.85001C2.54001 4.54001 2.76001 4 3.20001 4H6.79001C6.92001 4 7.05001 4.04999 7.14001 4.14999L12.14 9.14999C12.45 9.45999 12.23 10 11.79 10H8.5C6.57 10 5 11.57 5 13.5C5 15.43 6.57 17 8.5 17H10L12.15 19.15C12.46 19.46 12.24 20 11.8 20H8.51001C4.92001 20 2.01001 17.09 2.01001 13.5C2.01001 11.01 3.41001 8.84 5.48001 7.75L5.64999 7.64999Z" />
<path d="M18.35 16.35L21.15 19.15C21.46 19.46 21.24 20 20.8 20H17.21C17.08 20 16.95 19.95 16.86 19.85L11.86 14.85C11.55 14.54 11.77 14 12.21 14H15.5C17.43 14 19 12.43 19 10.5C19 8.57 17.43 7 15.5 7H14L11.85 4.85001C11.54 4.54001 11.76 4 12.2 4H15.49C19.08 4 21.99 6.91 21.99 10.5C21.99 12.99 20.59 15.16 18.52 16.25L18.35 16.35Z" />
</svg>

<?xml version="1.0" encoding="UTF-8"?>
<svg width="24" height="24" viewBox="0 0 24 24" xmlns="http://www.w3.org/2000/svg">
 <path d="m5.65 7.65-2.8-2.8c-0.31-0.31-0.09-0.85001 0.35-0.85001h3.59c0.13 0 0.26 0.04999 0.35 0.14999l5 5c0.31 0.31 0.09 0.85001-0.35 0.85001h-3.29c-1.93 0-3.5 1.57-3.5 3.5s1.57 3.5 3.5 3.5h1.5l2.15 2.15c0.31 0.31 0.09 0.85-0.35 0.85h-3.29c-3.59 0-6.5-2.91-6.5-6.5 0-2.49 1.4-4.66 3.47-5.75l0.16998-0.10001z"/>
 <path d="m18.35 16.35 2.8 2.8c0.31 0.31 0.09 0.85-0.35 0.85h-3.59c-0.13 0-0.26-0.05-0.35-0.15l-5-5c-0.31-0.31-0.09-0.85 0.35-0.85h3.29c1.93 0 3.5-1.57 3.5-3.5s-1.57-3.5-3.5-3.5h-1.5l-2.15-2.15c-0.31-0.31-0.09-0.85001 0.35-0.85001h3.29c3.59 0 6.5 2.91 6.5 6.5 0 2.49-1.4 4.66-3.47 5.75l-0.17 0.1z"/>
</svg>
